Yaru++/actions/16/format-join-node.svg

<svg viewBox="0 0 24 24" xmlns="http://www.w3.org/2000/svg">
  <path d="m4 4v3h3v-1h3 4 3v1h3v-3h-3v1h-3-4-3v-1zm1 1h1v1h-1zm13 0h1v1h-1zm-8 11v2h-6v1h6v1h4v-1h6v-1h-6v-2zm1 1h2v1 1h-2z" fill="#808080"/>
  <path d="m10 10.5 2 3 2-3z" fill="#1d99f3"/>
</svg>

<svg xmlns="http://www.w3.org/2000/svg" viewBox="0 0 24 24">
 <defs>
  <style id="current-color-scheme" type="text/css">
   .ColorScheme-Text { color:#808080; } .ColorScheme-Highlight { color:#1d99f3; }
  </style>
 </defs>
 <path style="fill:currentColor" class="ColorScheme-Text" d="M 4 4 L 4 7 L 7 7 L 7 6 L 10 6 L 14 6 L 17 6 L 17 7 L 20 7 L 20 4 L 17 4 L 17 5 L 14 5 L 10 5 L 7 5 L 7 4 L 4 4 z M 5 5 L 6 5 L 6 6 L 5 6 L 5 5 z M 18 5 L 19 5 L 19 6 L 18 6 L 18 5 z M 10 16 L 10 18 L 4 18 L 4 19 L 10 19 L 10 20 L 14 20 L 14 19 L 20 19 L 20 18 L 14 18 L 14 16 L 10 16 z M 11 17 L 13 17 L 13 18 L 13 19 L 11 19 L 11 17 z"/>
 <path style="fill:currentColor" class="ColorScheme-Highlight" d="M 10 10.5 L 12 13.5 L 14 10.5 L 10 10.5 z"/>
</svg>
